svgs/thin/leaf-heart.svg

<svg xmlns="http://www.w3.org/2000/svg" viewBox="0 0 512 512"><!--! Font Awesome Pro 6.3.0 by @fontawesome - https://fontawesome.com License - https://fontawesome.com/license (Commercial License) Copyright 2023 Fonticons, Inc. --><path d="M486.2 39.98C483.8 34.67 478.8 32 473.8 32c-4.744 0-9.547 2.379-12.3 7.156c-24.99 43.27-70.11 65.15-115.9 65.15c-11.18 0-22.41-1.304-33.39-3.917c-12.9-3.07-26.34-4.527-40.18-4.527C174.8 95.86 96 174.8 96 272c0 11.16 1.116 22.04 3.101 32.61c-.0215 .0195 .0215-.0156 0 0C13.19 372.1 .5469 467 .0625 471c-.5469 4.375 2.578 8.375 6.953 8.906C7.359 479.1 7.688 480 8.016 480c3.969 0 7.422-2.969 7.922-7.031c.1074-.8828 11.83-87.79 87.37-150.1c21.55 72.84 88.88 126 168.7 126c22.87 0 44.65-4.518 64.69-12.46C441.9 400.7 512 293.2 512 165.4C512 121.9 502.7 76.76 486.2 39.98zM330.8 420.7C311.9 428.2 292.1 431.1 272 432c-88.22 0-160-71.78-160-160s71.78-160 160-160l7.047-.1211c10.02 .4375 19.89 1.801 29.45 4.078c12.13 2.887 24.62 4.352 37.1 4.352c53.44 0 100.9-25.99 127.8-69.74C487.8 84.48 496 126 496 165.4C496 285.4 429.1 387.8 330.8 420.7zM348.6 192c-13.6 0-27.34 5.512-37.53 15.82l-7.188 7.188l-7.188-7.188C286.5 197.5 272.8 192 259.3 192c-10.84 0-21.61 3.52-30.5 10.92C205.9 222.1 204.6 256.5 225.1 277.2l70.63 71.36C298.1 350.9 301 352 304 352c2.967 0 5.936-1.145 8.229-3.438l70.63-71.36c20.52-20.73 19.27-55.11-3.75-74.28C370.3 195.5 359.5 192 348.6 192zM371.5 265.9L304 334.1L236.5 265.9C229.8 259.2 226.2 249.8 226.7 240.1c.459-9.777 4.861-18.63 12.37-24.91C244.7 210.5 251.7 208 259.3 208c9.6 0 19.09 4.035 26.11 11.13l18.5 18.5l18.57-18.57C329.4 212 338.9 208 348.6 208c7.615 0 14.61 2.484 20.26 7.219c7.561 6.293 11.98 15.14 12.46 24.92C381.8 249.8 378.2 259.2 371.5 265.9z"/></svg>

<svg xmlns="http://www.w3.org/2000/svg" viewBox="0 0 512 512"><!-- Font Awesome Pro 6.0.0-alpha2 by @fontawesome - https://fontawesome.com License - https://fontawesome.com/license (Commercial License) --><path d="M486.181 39.984C483.797 34.668 478.843 32 473.824 32C469.08 32 464.277 34.379 461.525 39.156C436.537 82.422 391.414 104.309 345.588 104.309C334.404 104.309 323.179 103.004 312.195 100.391C299.298 97.32 285.843 95.727 272 95.727V96C174.798 96 96 174.797 96 272C96 283.156 97.154 294.023 99.138 304.602C99.117 304.621 99.084 304.609 99.062 304.625C13.156 372.125 0.547 467 0.062 471.031C-0.485 475.406 2.64 479.406 7.015 479.937C7.359 479.969 7.687 480 8.015 480C11.984 480 15.437 477.031 15.937 472.969C16.045 472.086 27.769 385.184 103.304 321.977C124.855 394.812 192.173 448 272 448V447.973H272.013C294.88 447.973 316.658 443.469 336.701 435.531C441.945 400.73 512 293.246 512 165.395C512 121.891 502.67 76.758 486.181 39.984ZM330.81 420.656C311.863 428.16 292.07 431.977 272 432C183.775 432 112 360.223 112 272S183.775 112 272 112L279.047 111.879C289.062 112.316 298.937 113.68 308.492 115.957C320.627 118.844 333.107 120.309 345.588 120.309C399.023 120.309 446.478 94.32 473.347 50.57C487.773 84.477 496 126.043 496 165.395C496 285.387 429.964 387.84 330.81 420.656ZM348.611 192C335.007 192 321.273 197.512 311.082 207.82L303.894 215.008L296.707 207.82C286.515 197.512 272.847 192 259.281 192C248.441 192 237.668 195.52 228.783 202.922C205.863 222.09 204.613 256.469 225.136 277.203L295.769 348.563C298.062 350.855 301.031 352 304 352C306.966 352 309.935 350.855 312.228 348.562L382.861 277.203C403.384 256.469 402.134 222.09 379.111 202.922C370.271 195.52 359.484 192 348.611 192ZM371.49 265.949L304 334.133L236.507 265.949C229.793 259.164 226.203 249.754 226.656 240.125C227.115 230.348 231.517 221.492 239.025 215.215C244.689 210.492 251.693 208 259.281 208C268.88 208 278.373 212.035 285.392 219.133L292.58 226.32L303.894 237.637L315.207 226.32L322.461 219.07C329.414 212.035 338.947 208 348.615 208C356.23 208 363.222 210.484 368.875 215.219C376.435 221.512 380.859 230.363 381.33 240.137C381.793 249.754 378.207 259.16 371.49 265.949Z"/></svg>
